X: 12
T:Flowers of Edinburgh (Bampton)
M:2/2
L:1/8
O:England; Oxfordshire; Bampton.
B:Lionel Bacon, A Handbook of Morris Dances
Z:http://www.themorrisring.org/music/handbook-morris-dances
P:A(AB2)4
K:G
P:A
DEFD G2A2|B2B2 BdcB|AGFG EFGA|B2E2 E2GE|
DEFD G2A2|B2B2 Bgge|dcBA GFGA|B2G2 G4  ||
P:B
g6  (3gag|f6  (3faf|e2e2 efge|B2e2 efge|
dBGB d2d2|e2e2 efge|dcBA GFGA|B2G2 G4  ||

